content/_snippets/hardware/4.7k-resistor/image.svg

<svg width="72" height="17" viewBox="0 0 72 17" fill="none" xmlns="http://www.w3.org/2000/svg">
<path d="M3 8.08996L69 8.08997" stroke="#95A5A6" stroke-width="5" stroke-miterlimit="10" stroke-linecap="round"/>
<path d="M26.23 0.67999C25.42 0.30999 24.03 0.0100069 23.14 0.0100068L18.3 0.0100064C16.68 0.0100062 15.0699 1.61999 15.0699 3.23999L15.0699 12.93C15.0699 14.54 16.68 16.16 18.3 16.16L23.14 16.16C24.03 16.16 25.4199 15.86 26.23 15.49L26.4 15.41C27.21 15.04 28.6 14.74 29.48 14.74L42.65 14.74C43.54 14.74 44.92 15.04 45.74 15.41L45.9099 15.49C46.7199 15.86 48.1 16.16 49 16.16L53.84 16.16C55.46 16.16 57.0699 14.54 57.0699 12.93L57.0699 3.23999C57.0699 1.61999 55.46 0.0100096 53.84 0.0100095L49 0.0100091C48.11 0.010009 46.7199 0.309992 45.9099 0.679992L45.74 0.760009C44.93 1.13001 43.54 1.42999 42.65 1.42999L29.48 1.42999C28.59 1.42999 27.2 1.13001 26.4 0.760007L26.23 0.67999Z" fill="#E8D4AC"/>
<path d="M23.4399 0.0200194C23.9899 0.0200195 24.7599 0.219971 24.7599 0.219971L24.7599 15.95C24.7599 15.95 23.9699 16.13 23.6099 16.13C23.2499 16.13 19.9099 16.15 19.9099 16.15L19.9099 -4.24001e-07C19.9199 0.00999958 22.8899 0.0200194 23.4399 0.0200194Z" fill="#F1C40F"/>
<path d="M29.5 1.41998C30.17 1.41998 32.84 1.41998 32.84 1.41998L32.84 14.74C32.84 14.74 29.9799 14.74 29.4699 14.74C28.9599 14.74 27.99 14.92 27.99 14.92L27.99 1.23999C27.99 1.23999 28.83 1.41998 29.5 1.41998Z" fill="#A68EE6"/>
<path d="M36.0699 14.7501L40.9099 14.7501L40.9099 1.43005L36.0699 1.43005L36.0699 14.7501Z" fill="#DA5B4A"/>
<path d="M50.0699 16.16L51.9299 16.16L51.9299 0.0100098L50.0699 0.0100096L50.0699 16.16Z" fill="#BEA95D"/>
</svg>

<svg xmlns="http://www.w3.org/2000/svg" width="72" height="17" fill="none" viewBox="0 0 72 17"><path stroke="#95a5a6" stroke-linecap="round" stroke-miterlimit="10" stroke-width="5" d="M3 8.09h66"/><path fill="#e8d4ac" d="M26.23.68c-.81-.37-2.2-.67-3.09-.67H18.3c-1.62 0-3.23 1.61-3.23 3.23v9.69c0 1.61 1.61 3.23 3.23 3.23h4.84c.89 0 2.28-.3 3.09-.67l.17-.08c.81-.37 2.2-.67 3.08-.67h13.17c.89 0 2.27.3 3.09.67l.17.08c.81.37 2.19.67 3.09.67h4.84c1.62 0 3.23-1.62 3.23-3.23V3.24c0-1.62-1.61-3.23-3.23-3.23H49c-.89 0-2.28.3-3.09.67l-.17.08c-.81.37-2.2.67-3.09.67H29.48c-.89 0-2.28-.3-3.08-.67z"/><path fill="#f1c40f" d="M23.44.02c.55 0 1.32.2 1.32.2v15.73s-.79.18-1.15.18-3.7.02-3.7.02V0c.01.01 2.98.02 3.53.02"/><path fill="#a68ee6" d="M29.5 1.42h3.34v13.32h-3.37c-.51 0-1.48.18-1.48.18V1.24s.84.18 1.51.18"/><path fill="#da5b4a" d="M36.07 14.75h4.84V1.43h-4.84z"/><path fill="#bea95d" d="M50.07 16.16h1.86V.01h-1.86z"/></svg>
